src/assets/img/javascript.svg

<?xml version="1.0" encoding="UTF-8" standalone="no" ?>
<!DOCTYPE svg PUBLIC "-//W3C//DTD SVG 1.1//EN" "http://www.w3.org/Graphics/SVG/1.1/DTD/svg11.dtd">
<svg xmlns="http://www.w3.org/2000/svg" xmlns:xlink="http://www.w3.org/1999/xlink" version="1.1" width="256" height="290" viewBox="0 0 256 290" xml:space="preserve">
<desc>Created with Fabric.js 4.2.0</desc>
<defs>
</defs>
<rect x="0" y="0" width="100%" height="100%" fill="transparent"></rect>
<g transform="matrix(1 0 0 1 128 145)" id="b4207082-5003-48b3-8703-d8810c7c4dc1"  >
<rect style="stroke: none; stroke-width: 1; stroke-dasharray: none; stroke-linecap: butt; stroke-dashoffset: 0; stroke-linejoin: miter; stroke-miterlimit: 4; fill: rgb(255,255,255); fill-opacity: 0; fill-rule: nonzero; opacity: 1;" vector-effect="non-scaling-stroke"  x="-128" y="-145" rx="0" ry="0" width="256" height="290" />
</g>
<g transform="matrix(0 0 0 0 0 0)" id="27221088-d3c9-4d0b-ad0a-f4e92351f39b"  >
</g>
<g transform="matrix(0.98 0 0 0.98 127.58 144.52)"  >
<path style="stroke: none; stroke-width: 1; stroke-dasharray: none; stroke-linecap: butt; stroke-dashoffset: 0; stroke-linejoin: miter; stroke-miterlimit: 4; fill: rgb(127,127,127); fill-rule: nonzero; opacity: 1;" vector-effect="non-scaling-stroke"  transform=" translate(-123.2, -259.1)" d="M 18.8 375.4 L -5 113.4 L 251.39999999999998 113.5 L 227.79999999999998 375.2 L 123 404.8 L 18.8 375.4 z M 208.5 361.09999999999997 L 228.4 136.69999999999996 L 123.4 136.69999999999996 L 124.2 384.19999999999993 L 208.5 361.0999999999999 z M 113.6 169.59999999999997 L 88.1 169.59999999999997 L 87.8 303.9 L 38.3 290.4 L 38.4 321.09999999999997 L 113.6 341.4 L 113.6 169.6 z" stroke-linecap="round" />
</g>
<g transform="matrix(0.98 0 0 0.98 81.46 141.18)"  >
<path style="stroke: none; stroke-width: 1; stroke-dasharray: none; stroke-linecap: butt; stroke-dashoffset: 0; stroke-linejoin: miter; stroke-miterlimit: 4; fill: rgb(235,235,235); fill-opacity: 0; fill-rule: nonzero; opacity: 0.99;" vector-effect="non-scaling-stroke"  transform=" translate(-76, -255.5)" d="M 105.2 338.9 C 101.9 337.9 85.6 333.5 69 329 L 38.9 320.9 L 38.9 305.79999999999995 C 38.9 290.99999999999994 38.9 290.69999999999993 40.4 291.19999999999993 C 41.199999999999996 291.49999999999994 52.2 294.49999999999994 64.8 297.99999999999994 L 87.69999999999999 304.29999999999995 L 87.89999999999999 237.29999999999995 L 88.1 170.29999999999995 L 113.1 170.29999999999995 L 113.1 255.49999999999994 C 113.1 323.19999999999993 112.89999999999999 340.69999999999993 112.19999999999999 340.69999999999993 C 111.69999999999999 340.5999999999999 108.49999999999999 339.79999999999995 105.19999999999999 338.8999999999999 z" stroke-linecap="round" />
</g>
<g transform="matrix(0.98 0 0 0.98 81.41 141.22)"  >
<path style="stroke: none; stroke-width: 1; stroke-dasharray: none; stroke-linecap: butt; stroke-dashoffset: 0; stroke-linejoin: miter; stroke-miterlimit: 4; fill: rgb(255,255,255); fill-opacity: 0.92; fill-rule: nonzero; opacity: 1;" vector-effect="non-scaling-stroke"  transform=" translate(-75.95, -255.55)" d="M 38.4 321.1 L 38.3 290.40000000000003 C 38.3 290.40000000000003 69.9 299.3 87.8 303.90000000000003 L 88.1 169.70000000000005 L 113.6 169.70000000000005 L 113.6 341.40000000000003 L 38.39999999999999 321.1 z" stroke-linecap="round" />
</g>
<g transform="matrix(0.98 0 0 0.98 179.65 145.81)"  >
<path style="stroke: none; stroke-width: 1; stroke-dasharray: none; stroke-linecap: butt; stroke-dashoffset: 0; stroke-linejoin: miter; stroke-miterlimit: 4; fill: rgb(76,76,76); fill-rule: nonzero; opacity: 1;" vector-effect="non-scaling-stroke"  transform=" translate(-175.9, -260.35)" d="M 123.4 136.6 L 228.4 136.6 L 208.5 361 L 123.4 384.1 L 123.4 136.6 z M 203.10000000000002 323.4 L 210.00000000000003 239.49999999999997 L 159.00000000000003 245.19999999999996 L 159.00000000000003 200.39999999999998 L 213.40000000000003 200.2 L 215.60000000000002 169.6 L 133.50000000000003 170 L 134.60000000000002 281.4 L 184.20000000000002 272.9 L 183.50000000000003 297.7 L 133.50000000000003 311 L 134.00000000000003 341.4 L 203.10000000000002 323.4 z" stroke-linecap="round" />
</g>
</svg>

<svg id="svg4525" xmlns="http://www.w3.org/2000/svg" viewBox="0 0 256.4 291.5" width="2199" height="2500"><style>.st0{fill:#d4b830}.st1,.st2{opacity:.986;fill:#ebebeb;fill-opacity:0;enable-background:new}.st2{fill-opacity:.9216}.st3{fill:#fdd83c}</style><g id="g5193" transform="translate(4.988 -113.385)"><path id="path5113" class="st0" d="M18.8 375.4L-5 113.4l256.4.1-23.6 261.7L123 404.8 18.8 375.4zm189.7-14.3l19.9-224.4h-105l.8 247.5 84.3-23.1zm-94.9-191.5H88.1l-.3 134.3-49.5-13.5.1 30.7 75.2 20.3V169.6z"/><path id="path5159" class="st1" d="M105.2 338.9c-3.3-1-19.6-5.4-36.2-9.9l-30.1-8.1v-15.1c0-14.8 0-15.1 1.5-14.6.8.3 11.8 3.3 24.4 6.8l22.9 6.3.2-67 .2-67h25v85.2c0 67.7-.2 85.2-.9 85.2-.5-.1-3.7-.9-7-1.8z"/><path id="path5157" class="st2" d="M38.4 321.1l-.1-30.7s31.6 8.9 49.5 13.5l.3-134.2h25.5v171.7l-75.2-20.3z"/><path id="path5117" class="st3" d="M123.4 136.6h105L208.5 361l-85.1 23.1V136.6zm79.7 186.8l6.9-83.9-51 5.7v-44.8l54.4-.2 2.2-30.6-82.1.4 1.1 111.4 49.6-8.5-.7 24.8-50 13.3.5 30.4 69.1-18z"/></g></svg>
